X:178
T:Tinker's Yellow Pony* (r)
B:NFID.106a ("untitled reel")
178tink_yp
S:SD
N:Variant of "Yellow Tinker"
L:1/8
M:C
R:reel % played A-B-C-D-E-B, with final as |gbag fdcA|G4-G2z2|
Q:360
K:G=F
G|:DG~G2 DEFC|DG~G2 AdcA|DG~G2 DE^FG|1 AFF2 AdcA:|2 AFF2 ABc2||
%B
"5"dg~g2 dg^cd|dgg2 gdc2|dG~G2 dGBd|cAFA c2Bc|
"9"dg~g2 dgA^c|dgg2 ^fdce|g2de ^fgaf|gbag fdcA||
%C
"13"B2BG BdB2|BdBG c2Bc|d2BG BGBd|cA^FA c2cA|
"17"B2BG BdB2|BdBG c2Bc|d^cde f2fd|cFF2 AdcA||
%D
"21"G2GE FDFD|G2 (3ABc fdcA|G2GE F2FG|AFF2 AdcA|
"25"DGG2 DEFC|DGG2 AdcA|DGG2 DEFG|AF (3FEF ABc2||
%E
"29"G2GE FDB,D|GAfg ^fdcA|G2GE F2FG|AF (3FEF AdcA|
"33"G2GE FDB,D|GAfg ^fdcA|G2GE F2FG|AF (3FEF ABc2||

%%%

